assets/img/logo-programaria-grande.svg

<svg width="171" height="24" xmlns="http://www.w3.org/2000/svg"><g fill-rule="nonzero" fill="none"><path d="M170.962 18.344v-9.02c0-2.531-1.345-3.954-5.038-3.954-3.748 0-4.885 1.423-4.885 3.901v.311s.49.129 1.032.129c.519 0 1.008-.129 1.008-.129v-.311c0-1.678.698-2.479 2.845-2.479 2.196 0 2.919.825 2.919 2.531v1.448l-3.385.36c-3.334.362-4.652 1.475-4.652 3.54v.387c0 2.225.982 3.491 3.567 3.491 2.92 0 4.47-1.243 4.47-1.243v1.036s.49.129 1.059.129c.543.002 1.06-.127 1.06-.127zm-2.119-2.483s-1.033 1.267-3.695 1.267c-1.68 0-2.197-.673-2.197-2.068v-.387c0-1.214.698-1.938 2.869-2.171l3.023-.362v3.721zm-14.403 2.612c.517 0 1.06-.129 1.06-.129V5.577s-.516-.129-1.06-.129c-.568 0-1.084.129-1.084.129v12.767s.516.129 1.084.129zm0-15.223c.517 0 1.06-.128 1.06-.128V.408s-.516-.127-1.06-.127c-.568 0-1.084.127-1.084.127v2.714s.516.128 1.084.128zm-5.875 3.594s.104-.312.104-.724c0-.44-.104-.75-.104-.75-3.05 0-4.6 1.755-4.6 1.755V5.577s-.517-.129-1.06-.129c-.568 0-1.087.129-1.087.129v12.767s.519.129 1.087.129c.517 0 1.06-.129 1.06-.129v-9.15c.001-.001 1.37-2.35 4.6-2.35zm-12.671 11.629c.542 0 1.061-.129 1.061-.129v-9.02c0-2.531-1.344-3.954-5.04-3.954-3.746 0-4.884 1.423-4.884 3.901v.311s.49.129 1.034.129c.517 0 1.008-.129 1.008-.129v-.311c0-1.678.696-2.479 2.842-2.479 2.195 0 2.921.825 2.921 2.531v1.448l-3.385.36c-3.335.362-4.652 1.475-4.652 3.54v.387c0 2.225.982 3.491 3.566 3.491 2.92 0 4.471-1.243 4.471-1.243v1.036c-.001.002.49.131 1.058.131zm-1.059-2.612s-1.034 1.267-3.697 1.267c-1.679 0-2.195-.673-2.195-2.068v-.387c0-1.214.699-1.938 2.869-2.171l3.023-.362v3.721zm-57.019 2.612c.542 0 1.059-.129 1.059-.129v-9.02c0-2.531-1.344-3.954-5.039-3.954-3.745 0-4.884 1.423-4.884 3.901v.311s.491.129 1.033.129c.517 0 1.009-.129 1.009-.129v-.311c0-1.678.697-2.479 2.842-2.479 2.197 0 2.92.825 2.92 2.531v1.448l-3.385.36c-3.334.362-4.65 1.475-4.65 3.54v.387c0 2.225.98 3.491 3.565 3.491 2.92 0 4.47-1.243 4.47-1.243v1.036c0 .002.492.131 1.06.131zm-1.06-2.612s-1.032 1.267-3.693 1.267c-1.681 0-2.198-.673-2.198-2.068v-.387c0-1.214.698-1.938 2.869-2.171l3.022-.362v3.721zM64.473 6.844s.104-.312.104-.724c0-.44-.104-.75-.104-.75-3.048 0-4.601 1.755-4.601 1.755V5.577s-.517-.129-1.059-.129a5.05 5.05 0 0 0-1.085.129v12.767s.516.129 1.085.129c.518 0 1.059-.129 1.059-.129v-9.15c0-.001 1.37-2.35 4.601-2.35zM52.368 19.61V5.577s-.516-.129-1.084-.129c-.568 0-1.06.129-1.06.129v1.034s-1.499-1.241-4.29-1.241c-2.764 0-3.798 1.499-3.798 4.11v4.961c0 2.611 1.214 4.109 4.443 4.109 2.74 0 3.567-1.033 3.645-1.164v2.224c0 1.833-.801 2.685-3.411 2.685-2.48 0-4.135-.617-4.135-.617s-.129.283-.129.724c0 .413.129.723.129.723s1.576.594 4.135.594c4.057-.001 5.555-1.498 5.555-4.109zm-2.143-5.169c0 1.834-.826 2.687-3.282 2.687-2.015 0-2.662-.853-2.662-2.687V9.48c0-1.836.545-2.688 2.353-2.688 2.609 0 3.592 1.263 3.592 1.263v6.386h-.001zm-13.112 0V9.48c0-2.611-1.473-4.11-5.271-4.11-3.8 0-5.272 1.499-5.272 4.11v4.961c0 2.611 1.473 4.109 5.272 4.109 3.799.001 5.271-1.497 5.271-4.109zm-2.144 0c0 1.834-.803 2.687-3.127 2.687-2.326 0-3.127-.853-3.127-2.687V9.48c0-1.836.801-2.688 3.127-2.688 2.324 0 3.127.852 3.127 2.688v4.961zM22.322 6.844s.104-.312.104-.724c0-.44-.104-.75-.104-.75-3.049 0-4.6 1.755-4.6 1.755V5.577s-.516-.129-1.061-.129c-.567 0-1.083.129-1.083.129v12.767s.516.129 1.083.129c.518 0 1.061-.129 1.061-.129v-9.15c.001-.001 1.369-2.35 4.6-2.35zm-12.051 7.597V9.48c0-2.611-1.033-4.11-3.798-4.11-2.791 0-4.29 1.241-4.29 1.241V5.577s-.516-.129-1.061-.129c-.567 0-1.084.129-1.084.129v17.937s.517.127 1.084.127c.545 0 1.061-.127 1.061-.127v-6.127c.077.131.878 1.164 3.645 1.164 3.229 0 4.443-1.498 4.443-4.11zm-2.144 0c0 1.834-.62 2.687-2.662 2.687-2.455 0-3.282-.853-3.282-2.687V8.056s.982-1.263 3.592-1.263c1.81 0 2.353.852 2.353 2.688v4.96h-.001z" fill="#FFF" opacity=".9"/><path d="M122.254 12.52s.108-.213.108-.583c0-.345-.108-.602-.108-.602-1.702 0-2.282-.731-2.282-2.22V5.648c0-2.174-1.1-3.424-3.921-3.424 0 0-.106.237-.106.604 0 .365.106.58.106.58 1.704 0 2.283.732 2.283 2.24v3.467c0 1.336.432 2.329 1.443 2.821-1.012.517-1.443 1.486-1.443 2.821v3.469c0 1.509-.579 2.24-2.283 2.24 0 0-.106.214-.106.581 0 .345.106.604.106.604 2.821 0 3.921-1.252 3.921-3.426v-3.469c0-1.483.58-2.236 2.282-2.236zM110.422 18.473c.568 0 1.084-.129 1.084-.129V9.247c0-2.481-.98-3.877-3.592-3.877-2.842 0-4.443 1.423-4.443 1.423-.467-.931-1.475-1.423-3.077-1.423-2.558 0-3.953 1.241-3.953 1.241V5.577s-.516-.129-1.061-.129c-.567 0-1.085.129-1.085.129v12.767s.518.129 1.085.129c.519 0 1.061-.129 1.061-.129V8.056s.903-1.263 3.23-1.263c1.653 0 2.17.774 2.17 2.454v9.097s.518.129 1.059.129c.545 0 1.062-.129 1.062-.129V8.056c.182-.23 1.111-1.263 3.256-1.263 1.627 0 2.146.774 2.146 2.454v9.097c-.002 0 .514.129 1.058.129zM85.975 11.937c1.012-.492 1.442-1.485 1.442-2.821V5.648c0-1.508.582-2.24 2.283-2.24 0 0 .108-.215.108-.58 0-.366-.108-.604-.108-.604-2.82 0-3.919 1.25-3.919 3.424v3.467c0 1.488-.582 2.22-2.284 2.22 0 0-.106.257-.106.602 0 .37.106.583.106.583 1.702 0 2.284.754 2.284 2.238v3.469c0 2.174 1.099 3.426 3.919 3.426 0 0 .108-.26.108-.604 0-.367-.108-.581-.108-.581-1.701 0-2.283-.731-2.283-2.24v-3.469c0-1.336-.431-2.306-1.442-2.822z" fill="#F0604A"/></g></svg>

<?xml version="1.0" encoding="UTF-8"?>
<svg width="171px" height="24px" viewBox="0 0 171 24" version="1.1" xmlns="http://www.w3.org/2000/svg" xmlns:xlink="http://www.w3.org/1999/xlink">
    <!-- Generator: Sketch 52 (66869) - http://www.bohemiancoding.com/sketch -->
    <title>logo-programaria-salmao</title>
    <desc>Created with Sketch.</desc>
    <g id="wireframe" stroke="none" stroke-width="1" fill="none" fill-rule="evenodd">
        <g id="Desktop-HD-Copy-2" transform="translate(-252.000000, -48.000000)" fill-rule="nonzero">
            <g id="logo-programaria-salmao" transform="translate(252.000000, 48.000000)">
                <path d="M170.962,18.344 L170.962,9.324 C170.962,6.793 169.617,5.37 165.924,5.37 C162.176,5.37 161.039,6.793 161.039,9.271 L161.039,9.582 C161.039,9.582 161.529,9.711 162.071,9.711 C162.59,9.711 163.079,9.582 163.079,9.582 L163.079,9.271 C163.079,7.593 163.777,6.792 165.924,6.792 C168.12,6.792 168.843,7.617 168.843,9.323 L168.843,10.771 L165.458,11.131 C162.124,11.493 160.806,12.606 160.806,14.671 L160.806,15.058 C160.806,17.283 161.788,18.549 164.373,18.549 C167.293,18.549 168.843,17.306 168.843,17.306 L168.843,18.342 C168.843,18.342 169.333,18.471 169.902,18.471 C170.445,18.473 170.962,18.344 170.962,18.344 Z M168.843,15.861 C168.843,15.861 167.81,17.128 165.148,17.128 C163.468,17.128 162.951,16.455 162.951,15.06 L162.951,14.673 C162.951,13.459 163.649,12.735 165.82,12.502 L168.843,12.14 L168.843,15.861 Z M154.44,18.473 C154.957,18.473 155.5,18.344 155.5,18.344 L155.5,5.577 C155.5,5.577 154.984,5.448 154.44,5.448 C153.872,5.448 153.356,5.577 153.356,5.577 L153.356,18.344 C153.356,18.344 153.872,18.473 154.44,18.473 Z M154.44,3.25 C154.957,3.25 155.5,3.122 155.5,3.122 L155.5,0.408 C155.5,0.408 154.984,0.281 154.44,0.281 C153.872,0.281 153.356,0.408 153.356,0.408 L153.356,3.122 C153.356,3.122 153.872,3.25 154.44,3.25 Z M148.565,6.844 C148.565,6.844 148.669,6.532 148.669,6.12 C148.669,5.68 148.565,5.37 148.565,5.37 C145.515,5.37 143.965,7.125 143.965,7.125 L143.965,5.577 C143.965,5.577 143.448,5.448 142.905,5.448 C142.337,5.448 141.818,5.577 141.818,5.577 L141.818,18.344 C141.818,18.344 142.337,18.473 142.905,18.473 C143.422,18.473 143.965,18.344 143.965,18.344 L143.965,9.194 C143.966,9.193 145.335,6.844 148.565,6.844 Z M135.894,18.473 C136.436,18.473 136.955,18.344 136.955,18.344 L136.955,9.324 C136.955,6.793 135.611,5.37 131.915,5.37 C128.169,5.37 127.031,6.793 127.031,9.271 L127.031,9.582 C127.031,9.582 127.521,9.711 128.065,9.711 C128.582,9.711 129.073,9.582 129.073,9.582 L129.073,9.271 C129.073,7.593 129.769,6.792 131.915,6.792 C134.11,6.792 134.836,7.617 134.836,9.323 L134.836,10.771 L131.451,11.131 C128.116,11.493 126.799,12.606 126.799,14.671 L126.799,15.058 C126.799,17.283 127.781,18.549 130.365,18.549 C133.285,18.549 134.836,17.306 134.836,17.306 L134.836,18.342 C134.835,18.344 135.326,18.473 135.894,18.473 Z M134.835,15.861 C134.835,15.861 133.801,17.128 131.138,17.128 C129.459,17.128 128.943,16.455 128.943,15.06 L128.943,14.673 C128.943,13.459 129.642,12.735 131.812,12.502 L134.835,12.14 L134.835,15.861 Z M77.816,18.473 C78.358,18.473 78.875,18.344 78.875,18.344 L78.875,9.324 C78.875,6.793 77.531,5.37 73.836,5.37 C70.091,5.37 68.952,6.793 68.952,9.271 L68.952,9.582 C68.952,9.582 69.443,9.711 69.985,9.711 C70.502,9.711 70.994,9.582 70.994,9.582 L70.994,9.271 C70.994,7.593 71.691,6.792 73.836,6.792 C76.033,6.792 76.756,7.617 76.756,9.323 L76.756,10.771 L73.371,11.131 C70.037,11.493 68.721,12.606 68.721,14.671 L68.721,15.058 C68.721,17.283 69.701,18.549 72.286,18.549 C75.206,18.549 76.756,17.306 76.756,17.306 L76.756,18.342 C76.756,18.344 77.248,18.473 77.816,18.473 Z M76.756,15.861 C76.756,15.861 75.724,17.128 73.063,17.128 C71.382,17.128 70.865,16.455 70.865,15.06 L70.865,14.673 C70.865,13.459 71.563,12.735 73.734,12.502 L76.756,12.14 L76.756,15.861 Z M64.473,6.844 C64.473,6.844 64.577,6.532 64.577,6.12 C64.577,5.68 64.473,5.37 64.473,5.37 C61.425,5.37 59.872,7.125 59.872,7.125 L59.872,5.577 C59.872,5.577 59.355,5.448 58.813,5.448 C58.244,5.448 57.728,5.577 57.728,5.577 L57.728,18.344 C57.728,18.344 58.244,18.473 58.813,18.473 C59.331,18.473 59.872,18.344 59.872,18.344 L59.872,9.194 C59.872,9.193 61.242,6.844 64.473,6.844 Z M52.368,19.61 L52.368,5.577 C52.368,5.577 51.852,5.448 51.284,5.448 C50.716,5.448 50.224,5.577 50.224,5.577 L50.224,6.611 C50.224,6.611 48.725,5.37 45.934,5.37 C43.17,5.37 42.136,6.869 42.136,9.48 L42.136,14.441 C42.136,17.052 43.35,18.55 46.579,18.55 C49.319,18.55 50.146,17.517 50.224,17.386 L50.224,19.61 C50.224,21.443 49.423,22.295 46.813,22.295 C44.333,22.295 42.678,21.678 42.678,21.678 C42.678,21.678 42.549,21.961 42.549,22.402 C42.549,22.815 42.678,23.125 42.678,23.125 C42.678,23.125 44.254,23.719 46.813,23.719 C50.87,23.718 52.368,22.221 52.368,19.61 Z M50.225,14.441 C50.225,16.275 49.399,17.128 46.943,17.128 C44.928,17.128 44.281,16.275 44.281,14.441 L44.281,9.48 C44.281,7.644 44.826,6.792 46.634,6.792 C49.243,6.792 50.226,8.055 50.226,8.055 L50.226,14.441 L50.225,14.441 Z M37.113,14.441 L37.113,9.48 C37.113,6.869 35.64,5.37 31.842,5.37 C28.042,5.37 26.57,6.869 26.57,9.48 L26.57,14.441 C26.57,17.052 28.043,18.55 31.842,18.55 C35.641,18.551 37.113,17.053 37.113,14.441 Z M34.969,14.441 C34.969,16.275 34.166,17.128 31.842,17.128 C29.516,17.128 28.715,16.275 28.715,14.441 L28.715,9.48 C28.715,7.644 29.516,6.792 31.842,6.792 C34.166,6.792 34.969,7.644 34.969,9.48 L34.969,14.441 Z M22.322,6.844 C22.322,6.844 22.426,6.532 22.426,6.12 C22.426,5.68 22.322,5.37 22.322,5.37 C19.273,5.37 17.722,7.125 17.722,7.125 L17.722,5.577 C17.722,5.577 17.206,5.448 16.661,5.448 C16.094,5.448 15.578,5.577 15.578,5.577 L15.578,18.344 C15.578,18.344 16.094,18.473 16.661,18.473 C17.179,18.473 17.722,18.344 17.722,18.344 L17.722,9.194 C17.723,9.193 19.091,6.844 22.322,6.844 Z M10.271,14.441 L10.271,9.48 C10.271,6.869 9.238,5.37 6.473,5.37 C3.682,5.37 2.183,6.611 2.183,6.611 L2.183,5.577 C2.183,5.577 1.667,5.448 1.122,5.448 C0.555,5.448 0.038,5.577 0.038,5.577 L0.038,23.514 C0.038,23.514 0.555,23.641 1.122,23.641 C1.667,23.641 2.183,23.514 2.183,23.514 L2.183,17.387 C2.26,17.518 3.061,18.551 5.828,18.551 C9.057,18.551 10.271,17.053 10.271,14.441 Z M8.127,14.441 C8.127,16.275 7.507,17.128 5.465,17.128 C3.01,17.128 2.183,16.275 2.183,14.441 L2.183,8.056 C2.183,8.056 3.165,6.793 5.775,6.793 C7.585,6.793 8.128,7.645 8.128,9.481 L8.128,14.441 L8.127,14.441 Z" id="Shape" fill="#FFFFFF" opacity="0.9"></path>
                <path d="M122.254,12.52 C122.254,12.52 122.362,12.307 122.362,11.937 C122.362,11.592 122.254,11.335 122.254,11.335 C120.552,11.335 119.972,10.604 119.972,9.115 L119.972,5.648 C119.972,3.474 118.872,2.224 116.051,2.224 C116.051,2.224 115.945,2.461 115.945,2.828 C115.945,3.193 116.051,3.408 116.051,3.408 C117.755,3.408 118.334,4.14 118.334,5.648 L118.334,9.115 C118.334,10.451 118.766,11.444 119.777,11.936 C118.765,12.453 118.334,13.422 118.334,14.757 L118.334,18.226 C118.334,19.735 117.755,20.466 116.051,20.466 C116.051,20.466 115.945,20.68 115.945,21.047 C115.945,21.392 116.051,21.651 116.051,21.651 C118.872,21.651 119.972,20.399 119.972,18.225 L119.972,14.756 C119.972,13.273 120.552,12.52 122.254,12.52 Z" id="Shape" fill="#F0604A"></path>
                <path d="M110.422,18.473 C110.99,18.473 111.506,18.344 111.506,18.344 L111.506,9.247 C111.506,6.766 110.526,5.37 107.914,5.37 C105.072,5.37 103.471,6.793 103.471,6.793 C103.004,5.862 101.996,5.37 100.394,5.37 C97.836,5.37 96.441,6.611 96.441,6.611 L96.441,5.577 C96.441,5.577 95.925,5.448 95.38,5.448 C94.813,5.448 94.295,5.577 94.295,5.577 L94.295,18.344 C94.295,18.344 94.813,18.473 95.38,18.473 C95.899,18.473 96.441,18.344 96.441,18.344 L96.441,8.056 C96.441,8.056 97.344,6.793 99.671,6.793 C101.324,6.793 101.841,7.567 101.841,9.247 L101.841,18.344 C101.841,18.344 102.359,18.473 102.9,18.473 C103.445,18.473 103.962,18.344 103.962,18.344 L103.962,8.056 C104.144,7.826 105.073,6.793 107.218,6.793 C108.845,6.793 109.364,7.567 109.364,9.247 L109.364,18.344 C109.362,18.344 109.878,18.473 110.422,18.473 Z" id="Shape" fill="#F0604A"></path>
                <path d="M85.975,11.937 C86.987,11.445 87.417,10.452 87.417,9.116 L87.417,5.648 C87.417,4.14 87.999,3.408 89.7,3.408 C89.7,3.408 89.808,3.193 89.808,2.828 C89.808,2.462 89.7,2.224 89.7,2.224 C86.88,2.224 85.781,3.474 85.781,5.648 L85.781,9.115 C85.781,10.603 85.199,11.335 83.497,11.335 C83.497,11.335 83.391,11.592 83.391,11.937 C83.391,12.307 83.497,12.52 83.497,12.52 C85.199,12.52 85.781,13.274 85.781,14.758 L85.781,18.227 C85.781,20.401 86.88,21.653 89.7,21.653 C89.7,21.653 89.808,21.393 89.808,21.049 C89.808,20.682 89.7,20.468 89.7,20.468 C87.999,20.468 87.417,19.737 87.417,18.228 L87.417,14.759 C87.417,13.423 86.986,12.453 85.975,11.937 Z" id="Shape" fill="#F0604A"></path>
            </g>
        </g>
    </g>
</svg>
